Obsidian/apps/96/dart.svg

<svg height="96" width="96" xmlns="http://www.w3.org/2000/svg" xmlns:xlink="http://www.w3.org/1999/xlink"><linearGradient id="a"><stop offset="0" stop-color="#fefefe"/><stop offset="1" stop-color="#fefefe" stop-opacity="0"/></linearGradient><linearGradient id="b" gradientUnits="userSpaceOnUse" x1="36.357143" x2="36.357143" xlink:href="#a" y1="6" y2="63.893143"/><radialGradient id="c" cx="48" cy="90.171875" gradientTransform="matrix(1.1573129 0 0 .99590774 -7.551021 .197132)" gradientUnits="userSpaceOnUse" r="42" xlink:href="#a"/><linearGradient id="d" gradientUnits="userSpaceOnUse" x1="48" x2="48" y1="-6" y2="-128"><stop offset="0" stop-color="#f0f0f0"/><stop offset="1" stop-color="#c6c6c6"/></linearGradient><linearGradient id="e" gradientTransform="matrix(1.0058652 0 0 .994169 100 0)" gradientUnits="userSpaceOnUse" x1="45.447727" x2="45.447727" y1="92.539597" y2="7.01654"><stop offset="0"/><stop offset="1" stop-opacity=".588235"/></linearGradient><linearGradient id="f" gradientTransform="matrix(1.0238095 0 0 -1.0119048 -1.142857 98.071429)" gradientUnits="userSpaceOnUse" x1="32.251034" x2="32.251034" xlink:href="#e" y1="6.131708" y2="90.238609"/><linearGradient id="g" gradientTransform="matrix(1.0238095 0 0 1.0119048 -1.142857 -98.071429)" gradientUnits="userSpaceOnUse" x1="32.251034" x2="32.251034" xlink:href="#e" y1="6.131708" y2="90.238609"/><linearGradient id="h" gradientTransform="translate(0 -97)" gradientUnits="userSpaceOnUse" x1="32.251034" x2="32.251034" xlink:href="#e" y1="6.131708" y2="90.238609"/><g fill="url(#f)"><path d="m12 95.03125c-5.5110903 0-10.03125-4.52016-10.03125-10.03125v-71c0-5.5110902 4.5201598-10.03125 10.03125-10.03125h72c5.51109 0 10.03125 4.5201597 10.03125 10.03125v71c0 5.51109-4.52016 10.03125-10.03125 10.03125z" opacity=".08"/><path d="m12 94.03125c-4.971633 0-9.03125-4.059617-9.03125-9.03125v-71c0-4.9716329 4.0596171-9.03125 9.03125-9.03125h72c4.971633 0 9.03125 4.059617 9.03125 9.03125v71c0 4.971633-4.059617 9.03125-9.03125 9.03125z" opacity=".1"/><path d="m12 93c-4.4091333 0-8-3.590867-8-8v-71c0-4.4091333 3.5908667-8 8-8h72c4.409133 0 8 3.5908667 8 8v71c0 4.409133-3.590867 8-8 8z" opacity=".2"/></g><rect fill="url(#g)" height="85" opacity=".3" rx="7" transform="scale(1 -1)" width="86" x="5" y="-92"/><rect fill="url(#h)" height="84" opacity=".45" rx="6" transform="scale(1 -1)" width="84" x="6" y="-91"/><rect fill="url(#d)" height="84" rx="6" transform="scale(1 -1)" width="84" x="6" y="-90"/><path d="m12 6c-3.324 0-6 2.676-6 6v2 68 2c0 .334721.04135.6507.09375.96875.0487.295596.09704.596915.1875.875.00988.03038.020892.0636.03125.09375.098865.287771.2348802.547452.375.8125.1445918.273507.3156161.535615.5.78125s.3737765.473472.59375.6875c.439947.428056.94291.814526 1.5 1.09375.278545.139612.5734731.246947.875.34375-.2562018-.100222-.4867109-.236272-.71875-.375-.00741-.0044-.023866.0045-.03125 0-.031933-.0193-.062293-.04251-.09375-.0625-.120395-.0767-.2310226-.163513-.34375-.25-.1061728-.0808-.2132809-.161112-.3125-.25-.1779299-.161433-.3474596-.345388-.5-.53125-.1075789-.130255-.2183939-.265285-.3125-.40625-.025089-.03838-.038446-.08587-.0625-.125-.064763-.103032-.1302275-.204517-.1875-.3125-.1010083-.194706-.2056748-.415701-.28125-.625-.00796-.02181-.023589-.04055-.03125-.0625-.0318251-.09195-.0358045-.186831-.0625-.28125-.0303323-.106618-.0703894-.203031-.09375-.3125-.0728786-.341512-.125-.698205-.125-1.0625v-2-68-2c0-2.781848 2.2181517-5 5-5h2 68 2c2.781848 0 5 2.218152 5 5v2 68 2c0 .364295-.05212.720988-.125 1.0625-.04415.206893-.08838.397658-.15625.59375-.0077.02195-.0233.04069-.03125.0625-.06274.173739-.138383.367449-.21875.53125-.04158.0828-.07904.169954-.125.25-.0546.09721-.126774.18835-.1875.28125-.09411.140965-.204921.275995-.3125.40625-.143174.17445-.303141.346998-.46875.5-.01117.0102-.01998.02115-.03125.03125-.138386.125556-.285091.234436-.4375.34375-.102571.07315-.204318.153364-.3125.21875-.0074.0045-.02384-.0044-.03125 0-.232039.138728-.462548.274778-.71875.375.301527-.0968.596455-.204138.875-.34375.55709-.279224 1.060053-.665694 1.5-1.09375.219973-.214028.409366-.441865.59375-.6875s.355408-.507743.5-.78125c.14012-.265048.276135-.524729.375-.8125.01041-.03078.02133-.06274.03125-.09375.09046-.278085.1388-.579404.1875-.875.0524-.31805.09375-.634029.09375-.96875v-2-68-2c0-3.324-2.676-6-6-6z" fill="url(#b)" opacity=".5"/><path d="m12 90c-3.324 0-6-2.676-6-6v-2-68-2c0-.334721.04135-.6507.09375-.96875.0487-.295596.09704-.596915.1875-.875.00988-.03038.020892-.0636.03125-.09375.098865-.287771.2348802-.547452.375-.8125.1445918-.273507.3156161-.535615.5-.78125s.3737765-.473472.59375-.6875c.439947-.428056.94291-.814526 1.5-1.09375.278545-.139612.5734731-.246947.875-.34375-.2562018.100222-.4867109.236272-.71875.375-.00741.0044-.023866-.0045-.03125 0-.031933.0193-.062293.04251-.09375.0625-.120395.0767-.2310226.163513-.34375.25-.1061728.0808-.2132809.161112-.3125.25-.1779299.161433-.3474596.345388-.5.53125-.1075789.130255-.2183939.265285-.3125.40625-.025089.03838-.038446.08587-.0625.125-.064763.103032-.1302275.204517-.1875.3125-.1010083.194706-.2056748.415701-.28125.625-.00796.02181-.023589.04055-.03125.0625-.0318251.09195-.0358045.186831-.0625.28125-.0303323.106618-.0703894.203031-.09375.3125-.0728786.341512-.125.698205-.125 1.0625v2 68 2c0 2.781848 2.2181517 5 5 5h2 68 2c2.781848 0 5-2.218152 5-5v-2-68-2c0-.364295-.05212-.720988-.125-1.0625-.04415-.206893-.08838-.397658-.15625-.59375-.0077-.02195-.0233-.04069-.03125-.0625-.06274-.173739-.138383-.367449-.21875-.53125-.04158-.0828-.07904-.169954-.125-.25-.0546-.09721-.126774-.18835-.1875-.28125-.09411-.140965-.204921-.275995-.3125-.40625-.143174-.17445-.303141-.346998-.46875-.5-.01117-.0102-.01998-.02115-.03125-.03125-.138386-.125556-.285091-.234436-.4375-.34375-.102571-.07315-.204318-.153364-.3125-.21875-.0074-.0045-.02384.0044-.03125 0-.232039-.138728-.462548-.274778-.71875-.375.301527.0968.596455.204138.875.34375.55709.279224 1.060053.665694 1.5 1.09375.219973.214028.409366.441865.59375.6875s.355408.507743.5.78125c.14012.265048.276135.524729.375.8125.01041.03078.02133.06274.03125.09375.09046.278085.1388.579404.1875.875.0524.31805.09375.634029.09375.96875v2 68 2c0 3.324-2.676 6-6 6z" fill="url(#c)" opacity=".3"/><path d="m49.162588 48.982177-19.997173-20h15.97301 15.97301l.970722 2.621359c.533895 1.441747 3.107775 8.618854 5.719728 15.949123l4.749006 13.327764-1.483816 4.050877c-.816096 2.227983-1.579104 4.050877-1.69556 4.050877-.116468 0-9.21048-9-20.208927-20zm-22.422089 11.143929c-2.161957-.865226-9.932858-8.493209-10.465157-10.272694-.361355-1.208005-.123131-1.637542 5.817522-10.489462 3.406866-5.076434 6.885211-10.265989 7.072551-10.381773l-.488264 31.82354c-.160194-.01162-1.031685-.317441-1.936652-.679611z" fill="#0063ff" stroke-width=".38835"/><path d="m59.662365 71.139252-30.985214-10.333535.488264-31.82354 40.224091 40.00047zm-30.49695-42.157075s15.582625-10.873514 18.289909-12.463939l1.602897-.941636 1.849576.96219c3.516345 1.829245 10.203638 10.006112 10.203638 12.443385z" fill="#00a97c" stroke-width=".38361"/><path d="m29.264422 62.975272c-.54152-1.224486-.587271-2.169555-.587271-2.169555l30.985214 10.333535 9.727141-2.156605-3.108894 8.625634h-24.20977z" fill="#44c6ac" stroke-width=".401413"/><path d="m69.389506 68.982647c0-.09571.635342-1.83588 1.411872-3.867048.88839-2.323755 1.335749-4.077951 1.206565-4.731183-.112921-.570983-2.617373-7.802704-5.565445-16.070492-2.948076-8.267789-5.360139-15.140948-5.360139-15.273687 0-.13274.917876.120448 2.039725.56264 1.582768.623869 3.445084 2.142115 8.312864 6.777034l6.273134 5.973049-.104607 11.891579-.104611 11.891579-2.769048.843553c-1.522977.463954-3.347583 1.143577-4.054679 1.510271-.707098.366697-1.285631.588415-1.285631.492705z" fill="#3098ff" stroke-width=".395578"/></svg>

<?xml version="1.0" encoding="UTF-8" standalone="no"?>
<svg
   xmlns:dc="http://purl.org/dc/elements/1.1/"
   xmlns:cc="http://creativecommons.org/ns#"
   xmlns:rdf="http://www.w3.org/1999/02/22-rdf-syntax-ns#"
   xmlns:svg="http://www.w3.org/2000/svg"
   xmlns="http://www.w3.org/2000/svg"
   xmlns:xlink="http://www.w3.org/1999/xlink"
   xmlns:sodipodi="http://sodipodi.sourceforge.net/DTD/sodipodi-0.dtd"
   xmlns:inkscape="http://www.inkscape.org/namespaces/inkscape"
   id="svg2408"
   height="96"
   width="96"
   version="1.0"
   sodipodi:docname="dart.svg"
   inkscape:version="0.92.1 r">
  <sodipodi:namedview
     pagecolor="#fefefe"
     bordercolor="#666666"
     borderopacity="1"
     objecttolerance="10"
     gridtolerance="10"
     guidetolerance="10"
     inkscape:pageopacity="0"
     inkscape:pageshadow="2"
     inkscape:window-width="1920"
     inkscape:window-height="1011"
     id="namedview61"
     showgrid="false"
     inkscape:zoom="2.4583333"
     inkscape:cx="98.416383"
     inkscape:cy="0.21115485"
     inkscape:window-x="0"
     inkscape:window-y="32"
     inkscape:window-maximized="1"
     inkscape:current-layer="svg2408" />
  <defs
     id="defs2410">
    <linearGradient
       id="linearGradient899">
      <stop
         style="stop-color:#c8c8c8;stop-opacity:1"
         offset="0"
         id="stop895" />
      <stop
         style="stop-color:#a0a0a0;stop-opacity:0.98823529"
         offset="1"
         id="stop897" />
    </linearGradient>
    <linearGradient
       id="linearGradient867">
      <stop
         id="stop863"
         offset="0"
         style="stop-color:#a0a0a0;stop-opacity:1" />
      <stop
         id="stop865"
         offset="1"
         style="stop-color:#f0f0f0;stop-opacity:0.98823529" />
    </linearGradient>
    <linearGradient
       id="linearGradient4280">
      <stop
         offset="0"
         style="stop-color:#f0f0f0;stop-opacity:1"
         id="stop4284" />
      <stop
         offset="1"
         style="stop-color:#c6c6c6;stop-opacity:1"
         id="stop4282" />
    </linearGradient>
    <linearGradient
       gradientTransform="scale(1.0058652,0.994169)"
       gradientUnits="userSpaceOnUse"
       id="ButtonShadow"
       y2="7.0165396"
       x2="45.447727"
       y1="92.539597"
       x1="45.447727">
      <stop
         offset="0"
         style="stop-color:#000000;stop-opacity:1"
         id="stop3750" />
      <stop
         offset="1"
         style="stop-color:#000000;stop-opacity:0.58823532"
         id="stop3752" />
    </linearGradient>
    <linearGradient
       id="linearGradient3737">
      <stop
         offset="0"
         style="stop-color:#fefefe;stop-opacity:1"
         id="stop3739" />
      <stop
         offset="1"
         style="stop-color:#fefefe;stop-opacity:0"
         id="stop3741" />
    </linearGradient>
    <filter
       id="filter3174"
       color-interpolation-filters="sRGB">
      <feGaussianBlur
         stdDeviation="1.71"
         id="feGaussianBlur3176" />
    </filter>
    <linearGradient
       gradientUnits="userSpaceOnUse"
       xlink:href="#linearGradient3737"
       id="linearGradient3188"
       y2="63.893143"
       x2="36.357143"
       y1="6"
       x1="36.357143" />
    <radialGradient
       gradientTransform="matrix(1.1573129,0,0,0.99590774,-7.5510206,0.19713193)"
       gradientUnits="userSpaceOnUse"
       xlink:href="#linearGradient3737"
       id="radialGradient3619"
       fy="90.171875"
       fx="48"
       r="42"
       cy="90.171875"
       cx="48" />
    <linearGradient
       gradientTransform="translate(0,-96)"
       gradientUnits="userSpaceOnUse"
       xlink:href="#linearGradient4280"
       id="linearGradient3617"
       y2="-32"
       x2="48"
       y1="90"
       x1="48" />
    <linearGradient
       gradientTransform="matrix(1.0058652,0,0,0.994169,100,0)"
       gradientUnits="userSpaceOnUse"
       id="ButtonShadow-0"
       y2="7.0165396"
       x2="45.447727"
       y1="92.539597"
       x1="45.447727">
      <stop
         offset="0"
         style="stop-color:#000000;stop-opacity:1"
         id="stop3750-8" />
      <stop
         offset="1"
         style="stop-color:#000000;stop-opacity:0.58823532"
         id="stop3752-5" />
    </linearGradient>
    <linearGradient
       gradientTransform="matrix(1.0238095,0,0,-1.0119048,-1.1428571,98.071429)"
       gradientUnits="userSpaceOnUse"
       xlink:href="#ButtonShadow-0"
       id="linearGradient3780"
       y2="90.238609"
       x2="32.251034"
       y1="6.1317081"
       x1="32.251034" />
    <linearGradient
       gradientTransform="matrix(1.0238095,0,0,-1.0119048,-1.1428571,98.071429)"
       gradientUnits="userSpaceOnUse"
       xlink:href="#ButtonShadow-0"
       id="linearGradient3772"
       y2="90.238609"
       x2="32.251034"
       y1="6.1317081"
       x1="32.251034" />
    <linearGradient
       gradientTransform="matrix(1.0238095,0,0,1.0119048,-1.1428571,-98.071429)"
       gradientUnits="userSpaceOnUse"
       xlink:href="#ButtonShadow-0"
       id="linearGradient3725"
       y2="90.238609"
       x2="32.251034"
       y1="6.1317081"
       x1="32.251034" />
    <linearGradient
       gradientTransform="translate(0,-97)"
       gradientUnits="userSpaceOnUse"
       xlink:href="#ButtonShadow-0"
       id="linearGradient3721"
       y2="90.238609"
       x2="32.251034"
       y1="6.1317081"
       x1="32.251034" />
    <linearGradient
       gradientTransform="matrix(1.0238095,0,0,-1.0119048,-1.1428571,98.071429)"
       gradientUnits="userSpaceOnUse"
       xlink:href="#ButtonShadow-0"
       id="linearGradient2918"
       y2="90.238609"
       x2="32.251034"
       y1="6.1317081"
       x1="32.251034" />
    <linearGradient
       id="linearGradient4776">
      <stop
         id="stop4778"
         offset="0"
         style="stop-color:#1d99f3;stop-opacity:1" />
      <stop
         style="stop-color:#2972a7;stop-opacity:1"
         offset="1"
         id="stop4780" />
    </linearGradient>
    <linearGradient
       id="linearGradient5617">
      <stop
         style="stop-color:#9559b6;stop-opacity:1;"
         offset="0"
         id="stop5619" />
      <stop
         id="stop5621"
         offset="1"
         style="stop-color:#8e44ad;stop-opacity:1;" />
    </linearGradient>
    <linearGradient
       gradientTransform="matrix(1.1625301,0,0,1.1389522,-14.194804,-8.637483)"
       gradientUnits="userSpaceOnUse"
       y2="61.965019"
       x2="68.9282"
       y1="24.340015"
       x1="68.934395"
       id="linearGradient869"
       xlink:href="#linearGradient867" />
    <linearGradient
       gradientTransform="matrix(1.2838771,0,0,1.2528475,-20.865473,-14.411732)"
       gradientUnits="userSpaceOnUse"
       y2="61.965019"
       x2="68.9282"
       y1="24.340015"
       x1="68.934395"
       id="linearGradient869-3"
       xlink:href="#linearGradient899" />
    <linearGradient
       gradientTransform="translate(-0.00275081,-1.0129998)"
       xlink:href="#linearGradient3912"
       id="linearGradient3937"
       gradientUnits="userSpaceOnUse"
       x1="24"
       y1="12"
       x2="24"
       y2="36" />
    <linearGradient
       id="linearGradient3912">
      <stop
         style="stop-color:#5d5d5d;stop-opacity:1;"
         offset="0"
         id="stop3914" />
      <stop
         style="stop-color:#989898;stop-opacity:1;"
         offset="1"
         id="stop3916" />
    </linearGradient>
  </defs>
  <metadata
     id="metadata2413">
    <rdf:RDF>
      <cc:Work
         rdf:about="">
        <dc:format>image/svg+xml</dc:format>
        <dc:type
           rdf:resource="http://purl.org/dc/dcmitype/StillImage" />
        <dc:title></dc:title>
      </cc:Work>
    </rdf:RDF>
  </metadata>
  <g
     style="display:none"
     id="layer2">
    <rect
       style="opacity:0.9;fill:url(#ButtonShadow);fill-opacity:1;fill-rule:nonzero;stroke:none;filter:url(#filter3174)"
       id="rect3745"
       y="7"
       x="5"
       ry="6"
       rx="6"
       height="85"
       width="86" />
  </g>
  <path
     d="M 12,95.03125 C 6.4889097,95.03125 1.96875,90.51109 1.96875,85 l 0,-71 C 1.96875,8.4889098 6.4889098,3.96875 12,3.96875 l 72,0 c 5.51109,0 10.03125,4.5201597 10.03125,10.03125 l 0,71 c 0,5.51109 -4.52016,10.03125 -10.03125,10.03125 l -72,0 z"
     id="path3786"
     style="display:inline;opacity:0.07999998;fill:url(#linearGradient2918);fill-opacity:1;fill-rule:nonzero;stroke:none" />
  <path
     d="M 12,94.03125 C 7.028367,94.03125 2.96875,89.971633 2.96875,85 l 0,-71 C 2.96875,9.0283671 7.0283671,4.96875 12,4.96875 l 72,0 c 4.971633,0 9.03125,4.059617 9.03125,9.03125 l 0,71 c 0,4.971633 -4.059617,9.03125 -9.03125,9.03125 l -72,0 z"
     id="path3778-9"
     style="display:inline;opacity:0.1;fill:url(#linearGradient3780);fill-opacity:1;fill-rule:nonzero;stroke:none" />
  <path
     d="M 12,93 C 7.5908667,93 4,89.409133 4,85 L 4,14 C 4,9.5908667 7.5908667,6 12,6 l 72,0 c 4.409133,0 8,3.5908667 8,8 l 0,71 c 0,4.409133 -3.590867,8 -8,8 l -72,0 z"
     id="path3770"
     style="display:inline;opacity:0.2;fill:url(#linearGradient3772);fill-opacity:1;fill-rule:nonzero;stroke:none" />
  <rect
     width="86"
     height="85"
     rx="7"
     ry="7"
     x="5"
     y="-92"
     transform="scale(1,-1)"
     id="rect3723"
     style="display:inline;opacity:0.3;fill:url(#linearGradient3725);fill-opacity:1;fill-rule:nonzero;stroke:none" />
  <rect
     width="84"
     height="84"
     rx="6"
     ry="6"
     x="6"
     y="-91"
     transform="scale(1,-1)"
     id="rect3716"
     style="display:inline;opacity:0.45;fill:url(#linearGradient3721);fill-opacity:1;fill-rule:nonzero;stroke:none" />
  <rect
     width="84"
     height="84"
     rx="6"
     ry="6"
     x="6"
     y="-90"
     transform="scale(1,-1)"
     id="rect2419"
     style="opacity:1;fill:url(#linearGradient3617);fill-opacity:1;fill-rule:nonzero;stroke:none" />
  <path
     d="M 12,6 C 8.676,6 6,8.676 6,12 l 0,2 0,68 0,2 c 0,0.334721 0.04135,0.6507 0.09375,0.96875 0.0487,0.295596 0.09704,0.596915 0.1875,0.875 0.00988,0.03038 0.020892,0.0636 0.03125,0.09375 0.098865,0.287771 0.2348802,0.547452 0.375,0.8125 0.1445918,0.273507 0.3156161,0.535615 0.5,0.78125 0.1843839,0.245635 0.3737765,0.473472 0.59375,0.6875 0.439947,0.428056 0.94291,0.814526 1.5,1.09375 0.278545,0.139612 0.5734731,0.246947 0.875,0.34375 -0.2562018,-0.100222 -0.4867109,-0.236272 -0.71875,-0.375 -0.00741,-0.0044 -0.023866,0.0045 -0.03125,0 -0.031933,-0.0193 -0.062293,-0.04251 -0.09375,-0.0625 -0.120395,-0.0767 -0.2310226,-0.163513 -0.34375,-0.25 -0.1061728,-0.0808 -0.2132809,-0.161112 -0.3125,-0.25 C 8.4783201,88.557317 8.3087904,88.373362 8.15625,88.1875 8.0486711,88.057245 7.9378561,87.922215 7.84375,87.78125 7.818661,87.74287 7.805304,87.69538 7.78125,87.65625 7.716487,87.553218 7.6510225,87.451733 7.59375,87.34375 7.4927417,87.149044 7.3880752,86.928049 7.3125,86.71875 7.30454,86.69694 7.288911,86.6782 7.28125,86.65625 7.2494249,86.5643 7.2454455,86.469419 7.21875,86.375 7.1884177,86.268382 7.1483606,86.171969 7.125,86.0625 7.0521214,85.720988 7,85.364295 7,85 L 7,83 7,15 7,13 C 7,10.218152 9.2181517,8 12,8 l 2,0 68,0 2,0 c 2.781848,0 5,2.218152 5,5 l 0,2 0,68 0,2 c 0,0.364295 -0.05212,0.720988 -0.125,1.0625 -0.04415,0.206893 -0.08838,0.397658 -0.15625,0.59375 -0.0077,0.02195 -0.0233,0.04069 -0.03125,0.0625 -0.06274,0.173739 -0.138383,0.367449 -0.21875,0.53125 -0.04158,0.0828 -0.07904,0.169954 -0.125,0.25 -0.0546,0.09721 -0.126774,0.18835 -0.1875,0.28125 -0.09411,0.140965 -0.204921,0.275995 -0.3125,0.40625 -0.143174,0.17445 -0.303141,0.346998 -0.46875,0.5 -0.01117,0.0102 -0.01998,0.02115 -0.03125,0.03125 -0.138386,0.125556 -0.285091,0.234436 -0.4375,0.34375 -0.102571,0.07315 -0.204318,0.153364 -0.3125,0.21875 -0.0074,0.0045 -0.02384,-0.0044 -0.03125,0 -0.232039,0.138728 -0.462548,0.274778 -0.71875,0.375 0.301527,-0.0968 0.596455,-0.204138 0.875,-0.34375 0.55709,-0.279224 1.060053,-0.665694 1.5,-1.09375 0.219973,-0.214028 0.409366,-0.441865 0.59375,-0.6875 0.184384,-0.245635 0.355408,-0.507743 0.5,-0.78125 0.14012,-0.265048 0.276135,-0.524729 0.375,-0.8125 0.01041,-0.03078 0.02133,-0.06274 0.03125,-0.09375 0.09046,-0.278085 0.1388,-0.579404 0.1875,-0.875 C 89.95865,84.6507 90,84.334721 90,84 l 0,-2 0,-68 0,-2 C 90,8.676 87.324,6 84,6 L 12,6 Z"
     id="rect3728"
     style="opacity:0.5;fill:url(#linearGradient3188);fill-opacity:1;fill-rule:nonzero;stroke:none" />
  <path
     d="M 12,90 C 8.676,90 6,87.324 6,84 L 6,82 6,14 6,12 c 0,-0.334721 0.04135,-0.6507 0.09375,-0.96875 0.0487,-0.295596 0.09704,-0.596915 0.1875,-0.875 C 6.29113,10.12587 6.302142,10.09265 6.3125,10.0625 6.411365,9.774729 6.5473802,9.515048 6.6875,9.25 6.8320918,8.976493 7.0031161,8.714385 7.1875,8.46875 7.3718839,8.223115 7.5612765,7.995278 7.78125,7.78125 8.221197,7.353194 8.72416,6.966724 9.28125,6.6875 9.559795,6.547888 9.8547231,6.440553 10.15625,6.34375 9.9000482,6.443972 9.6695391,6.580022 9.4375,6.71875 c -0.00741,0.0044 -0.023866,-0.0045 -0.03125,0 -0.031933,0.0193 -0.062293,0.04251 -0.09375,0.0625 -0.120395,0.0767 -0.2310226,0.163513 -0.34375,0.25 -0.1061728,0.0808 -0.2132809,0.161112 -0.3125,0.25 C 8.4783201,7.442683 8.3087904,7.626638 8.15625,7.8125 8.0486711,7.942755 7.9378561,8.077785 7.84375,8.21875 7.818661,8.25713 7.805304,8.30462 7.78125,8.34375 7.716487,8.446782 7.6510225,8.548267 7.59375,8.65625 7.4927417,8.850956 7.3880752,9.071951 7.3125,9.28125 7.30454,9.30306 7.288911,9.3218 7.28125,9.34375 7.2494249,9.4357 7.2454455,9.530581 7.21875,9.625 7.1884177,9.731618 7.1483606,9.828031 7.125,9.9375 7.0521214,10.279012 7,10.635705 7,11 l 0,2 0,68 0,2 c 0,2.781848 2.2181517,5 5,5 l 2,0 68,0 2,0 c 2.781848,0 5,-2.218152 5,-5 l 0,-2 0,-68 0,-2 C 89,10.635705 88.94788,10.279012 88.875,9.9375 88.83085,9.730607 88.78662,9.539842 88.71875,9.34375 88.71105,9.3218 88.69545,9.30306 88.6875,9.28125 88.62476,9.107511 88.549117,8.913801 88.46875,8.75 88.42717,8.6672 88.38971,8.580046 88.34375,8.5 88.28915,8.40279 88.216976,8.31165 88.15625,8.21875 88.06214,8.077785 87.951329,7.942755 87.84375,7.8125 87.700576,7.63805 87.540609,7.465502 87.375,7.3125 87.36383,7.3023 87.35502,7.29135 87.34375,7.28125 87.205364,7.155694 87.058659,7.046814 86.90625,6.9375 86.803679,6.86435 86.701932,6.784136 86.59375,6.71875 c -0.0074,-0.0045 -0.02384,0.0044 -0.03125,0 -0.232039,-0.138728 -0.462548,-0.274778 -0.71875,-0.375 0.301527,0.0968 0.596455,0.204138 0.875,0.34375 0.55709,0.279224 1.060053,0.665694 1.5,1.09375 0.219973,0.214028 0.409366,0.441865 0.59375,0.6875 0.184384,0.245635 0.355408,0.507743 0.5,0.78125 0.14012,0.265048 0.276135,0.524729 0.375,0.8125 0.01041,0.03078 0.02133,0.06274 0.03125,0.09375 0.09046,0.278085 0.1388,0.579404 0.1875,0.875 C 89.95865,11.3493 90,11.665279 90,12 l 0,2 0,68 0,2 c 0,3.324 -2.676,6 -6,6 l -72,0 z"
     id="path3615"
     style="opacity:0.3;fill:url(#radialGradient3619);fill-opacity:1;fill-rule:nonzero;stroke:none" />
  <path
     style="fill:#0063ff;fill-opacity:1;stroke-width:0.3883495"
     d="m 49.162588,48.982177 -19.997173,-20 h 15.97301 15.97301 l 0.970722,2.621359 c 0.533895,1.441747 3.107775,8.618854 5.719728,15.949123 l 4.749006,13.327764 -1.483816,4.050877 c -0.816096,2.227983 -1.579104,4.050877 -1.69556,4.050877 -0.116468,0 -9.21048,-9 -20.208927,-20 z M 26.740499,60.126106 C 24.578542,59.26088 16.807641,51.632897 16.275342,49.853412 15.913987,48.645407 16.152211,48.21587 22.092864,39.36395 25.49973,34.287516 28.978075,29.097961 29.165415,28.982177 l -0.488264,31.82354 c -0.160194,-0.01162 -1.031685,-0.317441 -1.936652,-0.679611 z"
     id="path4549"
     inkscape:connector-curvature="0"
     sodipodi:nodetypes="sccccsccssccsccc" />
  <path
     style="fill:#00a97c;fill-opacity:1;stroke-width:0.3836095"
     d="M 59.662365,71.139252 28.677151,60.805717 29.165415,28.982177 69.389506,68.982647 Z M 29.165415,28.982177 c 0,0 15.582625,-10.873514 18.289909,-12.463939 l 1.602897,-0.941636 1.849576,0.96219 c 3.516345,1.829245 10.203638,10.006112 10.203638,12.443385 z"
     id="path4562"
     inkscape:connector-curvature="0"
     sodipodi:nodetypes="ccccccccccc" />
  <path
     style="fill:#44c6ac;fill-opacity:1;stroke-width:0.40141299"
     d="m 29.264422,62.975272 c -0.54152,-1.224486 -0.587271,-2.169555 -0.587271,-2.169555 l 30.985214,10.333535 9.727141,-2.156605 -3.108894,8.625634 h -24.20977 z"
     id="path4575"
     inkscape:connector-curvature="0"
     sodipodi:nodetypes="ccccccc" />
  <path
     style="fill:#3098ff;fill-opacity:1;stroke-width:0.39557841"
     d="m 69.389506,68.982647 c 0,-0.09571 0.635342,-1.83588 1.411872,-3.867048 0.88839,-2.323755 1.335749,-4.077951 1.206565,-4.731183 -0.112921,-0.570983 -2.617373,-7.802704 -5.565445,-16.070492 -2.948076,-8.267789 -5.360139,-15.140948 -5.360139,-15.273687 0,-0.13274 0.917876,0.120448 2.039725,0.56264 1.582768,0.623869 3.445084,2.142115 8.312864,6.777034 l 6.273134,5.973049 -0.104607,11.891579 -0.104611,11.891579 -2.769048,0.843553 c -1.522977,0.463954 -3.347583,1.143577 -4.054679,1.510271 -0.707098,0.366697 -1.285631,0.588415 -1.285631,0.492705 z"
     id="path4588"
     inkscape:connector-curvature="0" />
</svg>
